X:1
T:Title
%%score { ( 1 3 ) | 2 }
L:1/8
M:6/8
K:Eb
V:1 treble nm="Grand Piano"
V:3 treble 
V:2 bass 
V:1
 z3[Q:1/4=100] GAB | c2 B FG[FA] | G3 FG=A | Bcd [Ge]2 [=Ac] |[M:3/8] [DB]3 | [Ee][Ed][Ec] | %6
[M:3/4] [FB]>[FA] G G2 F | G3 [Ee] [Ed][Ec] | BA G G2 [DF] |[M:3/8] E3 | G2 G | %11
[M:3/4] A2 A [FB]2 [DF] | G3 G GG | A2 A[FB]/[FB]/- [FB][DF] |[M:3/8] G3 | c2 c | %16
[M:3/4] B2 A G2 [FB] |[M:15/16] [Ee]3/2- [Ee]3 [CE]->[CE][CE] |[M:3/4] [B,E]2 [CE] [B,EG]2 [A,DF] | %19
[M:3/8] E3 | G G2 |[M:3/4] A A2 [FB] [FB][DF] | G3 G2 G | A2 A [FB]2 [DF] |[M:3/8] G3 | c2 c | %26
[M:3/4] B2 A G2 [FB] |[M:15/16] [Ee]3/2- [Ee]3 [CE]->[CE][CE] |[M:3/4] [B,E]2 [CE] [B,EG]2 [A,DF] | %29
[M:3/8] [G,E]3 |] %30
V:2
 z3 [E,B,E][F,B,E][G,B,E] | [A,E]2 [G,B,E] [B,D][B,E][B,,B,] | [E,B,E]3 [F,B,D][F,B,D][F,B,E] | %3
 [F,DF][F,CF][F,B,F] [F,=A,]2 [F,E] |[M:3/8] [B,,B,]3 | [C,G,][C,G,][C,G,] | %6
[M:3/4] [D,B,]>[D,B,] [E,B,E] [A,C]2 [A,C] | [G,=B,D]3 [C,G,] [C,G,][C,G,] | %8
 [D,B,]2 [E,B,E] [B,E]2 [B,,A,] |[M:3/8] [E,G,]3 | [E,B,E]2 [E,B,E] | %11
[M:3/4] [E,CE]2 [E,CE] [D,B,]2 [B,,B,] | [E,B,E]3 [E,B,E] [E,B,E][E,B,E] | %13
 [E,CE]2 [E,CE][D,B,]/[D,B,]/- [D,B,][B,,B,] |[M:3/8] [E,B,E]3 | [A,E]2 [A,E] | %16
[M:3/4] [G,B,E]2 [F,B,D] [E,B,E]2 [D,B,] |[M:15/16] [C,G,]3/2- [C,G,]3 [A,,A,]->[A,,A,][A,,A,] | %18
[M:3/4] G,,2 A,, B,,2 B,, |[M:3/8] [E,G,]3 | [E,B,E] [E,B,E]2 | %21
[M:3/4] [E,CE] [E,CE]2 [D,B,] [D,B,][B,,B,] | [E,B,E]3 [E,B,E]2 [E,B,E] | %23
 [E,CE]2 [E,CE] [D,B,]2 [B,,B,] |[M:3/8] [E,B,E]3 | [A,E]2 [A,E] | %26
[M:3/4] [G,B,E]2 [F,B,D] [E,B,E]2 [D,B,] |[M:15/16] [C,G,]3/2- [C,G,]3 [A,,A,]->[A,,A,][A,,A,] | %28
[M:3/4] G,,2 A,, B,,2 B,, |[M:3/8] E,3 |] %30
V:3
 x6 | x6 | x6 | x6 |[M:3/8] x3 | x3 |[M:3/4] x6 | x6 | F2 z2 z2 |[M:3/8] x3 | x3 |[M:3/4] x6 | x6 | %13
 x6 |[M:3/8] x3 | x3 |[M:3/4] x6 |[M:15/16] x15/2 |[M:3/4] x6 |[M:3/8] x3 | x3 |[M:3/4] x6 | x6 | %23
 x6 |[M:3/8] x3 | x3 |[M:3/4] x6 |[M:15/16] x15/2 |[M:3/4] x6 |[M:3/8] x3 |] %30

